src/assets/icons/weeks,simple,41.svg

<svg width="48" height="48" viewBox="0 0 48 48" fill="none" xmlns="http://www.w3.org/2000/svg">
<rect opacity="0.2" x="5" y="5" width="38" height="38" rx="4" fill="black"/>
<path d="M5 13C5 9.22876 5 7.34315 6.17157 6.17157C7.34315 5 9.22876 5 13 5H35C38.7712 5 40.6569 5 41.8284 6.17157C43 7.34315 43 9.22876 43 13V15H5V13Z" fill="black"/>
<path d="M11.2638 34.9318H19.6417V38H23.1701V34.9318H25.3349V31.9744H23.1701V20.5455H18.5508L11.2638 32.0256V34.9318ZM19.7099 31.9744H14.9798V31.8381L19.5735 24.5682H19.7099V31.9744ZM35.1531 20.5455H31.6843L27.3633 23.2812V26.554L31.3604 24.0483H31.4627V38H35.1531V20.5455Z" fill="black"/>
</svg>

<svg xmlns="http://www.w3.org/2000/svg" width="48" height="48" fill="none" viewBox="0 0 48 48">
  <rect width="38" height="38" x="5" y="5" fill="#000" opacity=".2" rx="4"/>
  <path fill="#000" d="M5 13c0-3.771 0-5.657 1.172-6.828C7.343 5 9.229 5 13 5h22c3.771 0 5.657 0 6.828 1.172C43 7.343 43 9.229 43 13v2H5v-2zM11.264 34.932h8.378V38h3.528v-3.068h2.165v-2.958H23.17V20.546h-4.62l-7.286 11.48v2.906zm8.446-2.958h-4.73v-.136l4.593-7.27h.137v7.406zm15.443-11.428h-3.469l-4.32 2.735v3.273l3.996-2.506h.103V38h3.69V20.546z"/>
</svg>
